teeny/solid/bitbucket.svg

<svg width="15" height="15" viewBox="0 0 15 15" fill="none" xmlns="http://www.w3.org/2000/svg">
<path d="M0.500003 0C0.355058 0 0.217245 0.0628994 0.122276 0.172399C0.0273076 0.281899 -0.0154699 0.427222 0.00502854 0.570711L2.00503 14.5707C2.04022 14.817 2.25118 15 2.5 15H12.5C12.7488 15 12.9598 14.817 12.995 14.5707L14.2194 6H9.37332L9.03999 10H5.96012L5.54346 5H14.3622L14.995 0.570711C15.0155 0.427222 14.9727 0.281899 14.8777 0.172399C14.7828 0.0628994 14.6449 0 14.5 0H0.500003Z" fill="black"/>
</svg>

<svg viewBox="0 0 15 15" xmlns="http://www.w3.org/2000/svg"><path d="M.5 0C.35 0 .21.06.12.17c-.1.1-.14.25-.12.39l2 13.99c.03.24.24.42.49.42h10c.24 0 .45-.19.49-.43l1.22-8.58H9.35l-.34 4H5.93l-.42-5h8.81l.63-4.43c.02-.15-.03-.29-.12-.4 -.1-.11-.24-.18-.38-.18h-14Z"/></svg>
